packages/assets/static/images/icons/horse.svg

<svg width="24" height="24" viewBox="0 0 24 24" xmlns="http://www.w3.org/2000/svg">
<path d="M13.4995 9.375C13.4995 9.5975 13.4335 9.81501 13.3099 10C13.1862 10.185 13.0105 10.3292 12.805 10.4144C12.5994 10.4995 12.3732 10.5218 12.155 10.4784C11.9368 10.435 11.7363 10.3278 11.579 10.1705C11.4216 10.0132 11.3145 9.81271 11.2711 9.59448C11.2277 9.37625 11.2499 9.15005 11.3351 8.94448C11.4202 8.73891 11.5644 8.56321 11.7494 8.4396C11.9344 8.31598 12.152 8.25 12.3745 8.25C12.6728 8.25 12.959 8.36853 13.17 8.5795C13.3809 8.79048 13.4995 9.07663 13.4995 9.375ZM22.4995 12.1388C22.4572 14.6646 21.439 17.0761 19.6581 18.8679C17.8772 20.6596 15.4719 21.6925 12.9463 21.75H12.7429C10.3519 21.7668 8.0391 20.8986 6.24977 19.3125C6.10059 19.1798 6.01021 18.9934 5.99852 18.7941C5.99273 18.6954 6.00643 18.5966 6.03884 18.5032C6.07126 18.4098 6.12175 18.3237 6.18743 18.2498C6.25311 18.176 6.3327 18.1158 6.42165 18.0727C6.5106 18.0295 6.60717 18.0044 6.70584 17.9986C6.90513 17.9869 7.1009 18.0549 7.25008 18.1875C7.81515 18.6931 8.44972 19.1152 9.13446 19.4409L11.6245 16.0162C9.48883 15.0947 7.17415 15.4866 5.86821 15.7078C5.31549 15.8033 4.74706 15.7411 4.22808 15.5283C3.70909 15.3156 3.26053 14.9609 2.93383 14.505L2.90571 14.4647L1.61383 12.4022C1.56144 12.3183 1.52616 12.2249 1.51001 12.1273C1.49386 12.0298 1.49716 11.93 1.51973 11.8337C1.5423 11.7374 1.58368 11.6466 1.6415 11.5663C1.69933 11.4861 1.77244 11.4181 1.85665 11.3663L11.2495 5.58094V3C11.2495 2.80109 11.3285 2.61032 11.4691 2.46967C11.6098 2.32902 11.8005 2.25 11.9995 2.25H12.7495C14.0416 2.24987 15.3209 2.50658 16.513 3.00522C17.705 3.50386 18.7861 4.23447 19.6933 5.15459C20.6005 6.07471 21.3157 7.16598 21.7975 8.36496C22.2792 9.56395 22.5178 10.8467 22.4995 12.1388ZM20.9995 12.1181C21.0151 11.0248 20.8133 9.93931 20.4057 8.9247C19.9981 7.91009 19.3929 6.98662 18.6253 6.20798C17.8576 5.42934 16.9428 4.81107 15.9341 4.3891C14.9254 3.96713 13.8429 3.74989 12.7495 3.75V6C12.7494 6.12806 12.7165 6.25396 12.654 6.36572C12.5915 6.47748 12.5014 6.57137 12.3923 6.63844L3.28633 12.2428L4.16383 13.6491C4.32934 13.8719 4.5537 14.0442 4.81173 14.1465C5.06975 14.2489 5.3512 14.2772 5.62446 14.2284C7.12446 13.9753 10.1966 13.4559 12.9435 14.9953C13.9028 14.9442 14.806 14.5275 15.4674 13.8309C16.1288 13.1342 16.4982 12.2106 16.4995 11.25C16.4995 11.0511 16.5785 10.8603 16.7191 10.7197C16.8598 10.579 17.0505 10.5 17.2495 10.5C17.4484 10.5 17.6391 10.579 17.7798 10.7197C17.9204 10.8603 17.9995 11.0511 17.9995 11.25C17.9976 12.5736 17.4966 13.8478 16.5963 14.818C15.6961 15.7883 14.4629 16.3833 13.1432 16.4841L10.6016 19.9791C11.3572 20.175 12.136 20.2661 12.9163 20.25C15.0529 20.2002 17.0873 19.326 18.5939 17.8103C20.1005 16.2946 20.9625 14.2549 20.9995 12.1181Z"/>
</svg>

<svg viewBox="0 0 24 24" xmlns="http://www.w3.org/2000/svg" aria-hidden="true" fill="currentColor"><path d="M13.5 9.375a1.125 1.125 0 1 1-2.25 0 1.125 1.125 0 0 1 2.25 0m9 2.764a9.78 9.78 0 0 1-9.554 9.611h-.203a9.7 9.7 0 0 1-6.493-2.437.753.753 0 0 1 1-1.125 8 8 0 0 0 1.884 1.253l2.49-3.425c-2.135-.921-4.45-.53-5.756-.308a2.98 2.98 0 0 1-2.934-1.203l-.028-.04-1.292-2.063a.75.75 0 0 1 .243-1.036l9.392-5.785V3a.75.75 0 0 1 .75-.75h.75a9.75 9.75 0 0 1 9.75 9.889m-1.5-.02a8.25 8.25 0 0 0-8.25-8.369V6a.75.75 0 0 1-.358.638l-9.106 5.605.878 1.406a1.49 1.49 0 0 0 1.46.58c1.5-.254 4.573-.773 7.32.766A3.756 3.756 0 0 0 16.5 11.25a.75.75 0 1 1 1.5 0 5.256 5.256 0 0 1-4.857 5.234l-2.541 3.495a8.5 8.5 0 0 0 2.314.271A8.277 8.277 0 0 0 21 12.118"/></svg>
